!!!COM: they-might-be-giants
!!!OTL: birdhouse-in-your-soul
!!!RNB: hooktheoryid: NlamkyOvxDM
**kern	**text
*clefG2	*
*k[]	*
*M4/4	*
=1	=1
4r	C
4c	.
4d	.
4e	.
=2	=2
8f	F
8e	.
4f	.
2e	.
=3	=3
4r	C
4c	.
4d	.
8e	.
[8f	.
=4	=4
8f]	F
8e	.
4f	.
2e	.
=5	=5
4r	C
8c	.
8c	.
4d	G/B
4e	.
=6	=6
4f	C7
4e	.
4d	.
4e	.
=7	=7
4f	F
4f	.
4g	.
4a	.
=8	=8
8a	G
8g	.
4a	.
2g	.
=9	=9
1r	.
*-	*-